Simply black circles/symbolic/status/dialog-warning-symbolic.svg

<?xml version="1.0" encoding="UTF-8" standalone="no"?>
<!-- Created with Inkscape (http://www.inkscape.org/) -->

<svg
   xmlns:dc="http://purl.org/dc/elements/1.1/"
   xmlns:cc="http://creativecommons.org/ns#"
   xmlns:rdf="http://www.w3.org/1999/02/22-rdf-syntax-ns#"
   xmlns:svg="http://www.w3.org/2000/svg"
   xmlns="http://www.w3.org/2000/svg"
   xmlns:sodipodi="http://sodipodi.sourceforge.net/DTD/sodipodi-0.dtd"
   xmlns:inkscape="http://www.inkscape.org/namespaces/inkscape"
   id="svg3247"
   width="24"
   height="24"
   version="1.0"
   sodipodi:docname="dialog-warning-symbolic.svg"
   inkscape:version="0.92.3 (2405546, 2018-03-11)">
  <metadata
     id="metadata28">
    <rdf:RDF>
      <cc:Work
         rdf:about="">
        <dc:format>image/svg+xml</dc:format>
        <dc:type
           rdf:resource="http://purl.org/dc/dcmitype/StillImage" />
        <dc:title></dc:title>
      </cc:Work>
    </rdf:RDF>
  </metadata>
  <sodipodi:namedview
     pagecolor="#ffffff"
     bordercolor="#666666"
     borderopacity="1"
     objecttolerance="10"
     gridtolerance="10"
     guidetolerance="10"
     inkscape:pageopacity="0"
     inkscape:pageshadow="2"
     inkscape:window-width="1366"
     inkscape:window-height="719"
     id="namedview26"
     showgrid="false"
     showguides="true"
     inkscape:guide-bbox="true"
     inkscape:snap-global="false"
     inkscape:zoom="7.8371002"
     inkscape:cx="-14.47663"
     inkscape:cy="11.489607"
     inkscape:window-x="0"
     inkscape:window-y="25"
     inkscape:window-maximized="1"
     inkscape:current-layer="svg3247" />
  <defs
     id="defs3249">
    <linearGradient
       id="linearGradient2411"
       x1="63.396999"
       x2="63.396999"
       y1="-12.489"
       y2="5.4675999"
       gradientTransform="matrix(2.1154,0,0,2.1153,-107.58,32.427)"
       gradientUnits="userSpaceOnUse">
      <stop
         id="stop4875"
         style="stop-color:#fff"
         offset="0" />
      <stop
         id="stop4877"
         style="stop-color:#fff;stop-opacity:0"
         offset="1" />
    </linearGradient>
    <linearGradient
       id="linearGradient2416"
       x1="18.379"
       x2="18.379"
       y1="44.98"
       y2="3.0816"
       gradientTransform="matrix(0.95844,0,0,0.95844,0.99752,1.9975)"
       gradientUnits="userSpaceOnUse">
      <stop
         id="stop2492"
         style="stop-color:#791235"
         offset="0" />
      <stop
         id="stop2494"
         style="stop-color:#dd3b27"
         offset="1" />
    </linearGradient>
    <radialGradient
       id="radialGradient2414"
       cx="23.896"
       cy="3.99"
       r="20.396999"
       gradientTransform="matrix(0,2.2875,-3.0194,0,36.047,-50.63)"
       gradientUnits="userSpaceOnUse">
      <stop
         id="stop3244"
         style="stop-color:#f8b17e"
         offset="0" />
      <stop
         id="stop3246"
         style="stop-color:#e35d4f"
         offset=".26238" />
      <stop
         id="stop3248"
         style="stop-color:#c6262e"
         offset=".66094" />
      <stop
         id="stop3250"
         style="stop-color:#690b54"
         offset="1" />
    </radialGradient>
    <radialGradient
       id="radialGradient2419"
       cx="62.625"
       cy="4.625"
       r="10.625"
       gradientTransform="matrix(2.1647,0,0,0.75294,-111.56,36.518)"
       gradientUnits="userSpaceOnUse">
      <stop
         id="stop8840"
         offset="0" />
      <stop
         id="stop8842"
         style="stop-opacity:0"
         offset="1" />
    </radialGradient>
  </defs>
  <path
     style="fill:#808080;fill-opacity:1;stroke-width:0.26165536"
     d="M 12 0.15820312 A 11.84323 11.84323 0 0 0 0.15625 12.001953 A 11.84323 11.84323 0 0 0 12 23.841797 A 11.84323 11.84323 0 0 0 23.84375 12.001953 A 11.84323 11.84323 0 0 0 12 0.15820312 z M 11.886719 1.9199219 L 3.1035156 17.091797 A 10.181907 10.181907 0 0 1 1.7832031 12.101562 A 10.181907 10.181907 0 0 1 11.886719 1.9199219 z M 12.046875 1.921875 A 10.181907 10.181907 0 0 1 22.148438 12.101562 A 10.181907 10.181907 0 0 1 20.832031 17.095703 L 12.046875 1.921875 z M 11.798828 4.6328125 C 11.933486 4.6094561 12.07294 4.6145201 12.208984 4.6542969 C 12.759702 4.7809932 13.027757 5.4003649 12.929688 5.921875 C 12.737312 8.1242947 12.470033 10.316233 12.304688 12.521484 L 11.667969 12.521484 C 11.468649 10.225059 11.200964 7.9534126 10.966797 5.6660156 C 10.966797 5.5943825 10.972365 5.5218199 10.984375 5.4511719 C 11.038625 5.0290651 11.394855 4.7028818 11.798828 4.6328125 z M 11.933594 13.910156 C 12.319829 13.908769 12.712978 14.117003 12.890625 14.474609 C 13.208157 15.028148 12.881267 15.806721 12.261719 15.964844 C 11.622042 16.180675 10.871744 15.645701 10.896484 14.964844 C 10.888681 14.646817 11.050603 14.349512 11.292969 14.150391 C 11.472765 13.986171 11.701853 13.910988 11.933594 13.910156 z M 3.2402344 17.328125 L 20.691406 17.328125 A 10.181907 10.181907 0 0 1 11.966797 22.285156 A 10.181907 10.181907 0 0 1 3.2402344 17.328125 z "
     id="path838" />
</svg>

<svg xmlns="http://www.w3.org/2000/svg" width="24" height="24" version="1"><path d="M12 .158A11.843 11.843 0 0 0 .156 12.002 11.843 11.843 0 0 0 12 23.842a11.843 11.843 0 0 0 11.844-11.84A11.843 11.843 0 0 0 12 .158zm-.113 1.762L3.104 17.092a10.182 10.182 0 0 1-1.32-4.99A10.182 10.182 0 0 1 11.886 1.92zm.16.002a10.182 10.182 0 0 1 10.101 10.18 10.182 10.182 0 0 1-1.316 4.994L12.047 1.922zm-.248 2.71a.905.905 0 0 1 .41.022c.55.127.819.746.72 1.268-.192 2.202-.459 4.394-.624 6.6h-.637c-.2-2.297-.467-4.569-.701-6.856 0-.072.005-.144.017-.215.055-.422.41-.748.815-.818zm.135 9.278c.386-.001.779.207.957.565.317.553-.01 1.332-.63 1.49-.639.216-1.39-.32-1.365-1a1.04 1.04 0 0 1 .397-.815.943.943 0 0 1 .64-.24zM3.24 17.328h17.451a10.182 10.182 0 0 1-8.724 4.957 10.182 10.182 0 0 1-8.727-4.957z" fill="gray"/></svg>
